images/icons/v2/leave-24.svg

<svg fill="none" height="19" viewBox="0 0 19 19" width="19" xmlns="http://www.w3.org/2000/svg"><path d="m6.5 12.25v6.75h-1.5v-6.75zm9.5-12.25h-8c-.79565 0-1.55871.316071-2.12132.87868-.56261.56261-.87868 1.32567-.87868 2.12132v4.75h1.5v-4.75c0-.39782.15804-.77936.43934-1.06066s.66284-.43934 1.06066-.43934h8c.3978 0 .7794.15804 1.0607.43934s.4393.66284.4393 1.06066v16h1.5v-16c0-.79565-.3161-1.55871-.8787-2.12132-.5626-.562609-1.3257-.87868-2.1213-.87868zm-6.094 4.485-1.06 1.06 2.976 2.977 1.019.728h-12.841v1.5h12.841l-1.143.817-2.855 2.89 1.066 1.055 5.479-5.545z" fill="#f44336"/></svg>

<svg width="19" height="19" viewBox="0 0 19 19" fill="none" xmlns="http://www.w3.org/2000/svg">
<path d="M6.5 12.25V19H5V12.25H6.5ZM16 0H8C7.20435 0 6.44129 0.316071 5.87868 0.87868C5.31607 1.44129 5 2.20435 5 3V7.75H6.5V3C6.5 2.60218 6.65804 2.22064 6.93934 1.93934C7.22064 1.65804 7.60218 1.5 8 1.5H16C16.3978 1.5 16.7794 1.65804 17.0607 1.93934C17.342 2.22064 17.5 2.60218 17.5 3V19H19V3C19 2.20435 18.6839 1.44129 18.1213 0.87868C17.5587 0.316071 16.7956 0 16 0ZM9.906 4.485L8.846 5.545L11.822 8.522L12.841 9.25H0V10.75H12.841L11.698 11.567L8.843 14.457L9.909 15.512L15.388 9.967L9.906 4.485Z" fill="#F44336"/>
</svg>
